X:25
T: Old Arboe
N: I0524
O: Irland
S: O BOYLE, Sean: 25 Irish Folksongs, Dublin 1976]
R: historisch, erzählendes Lied]
M: 6/4
L: 1/8
K: Bb
FDB,2DE | F3GA2B2D2B,2 | E3C_A2
B,CD3E | F3=EGF_ECB,3B, | B,6
FDB,2DE | F3GA2B2D2B,2 | E3C_A2
B,CD3E | F3=EGF_ECB,3B, | B,6
F2B2c2 | d4edcAF2GA | B3AF3
FB2c2 | d4edcAF2GA | B6
ABc2F2 | B2_A4FED2B,2 | E3C_A2
B,CD3E | F3=EGF_ECB,3B, | B,6

